svgs/duotone/hand-fist.svg

<svg xmlns="http://www.w3.org/2000/svg" viewBox="0 0 448 512"><!-- Font Awesome Pro 6.0.0-alpha2 by @fontawesome - https://fontawesome.com License - https://fontawesome.com/license (Commercial License) --><defs><style>.fa-secondary{opacity:.4}</style></defs><path d="M350.867 246.15C338.438 238.502 328.928 226.84 323.984 212.9C313.727 219.893 301.348 224 288 224C280.359 224 273.135 222.436 266.342 219.98C269.984 228.594 272 238.061 272 248C272 287.766 239.75 320 200 320H128C119.164 320 112 312.836 112 304C112 295.162 119.164 288 128 288H200C222.094 288 240 270.094 240 248S222.094 208 200 208H72C49.906 208 32 225.906 32 248V311.406C32 344.531 48 375.969 74.812 395.531L128 434.201V512H352V426.908C390.301 402.822 416 360.484 416 312V247.121C406.553 252.619 395.717 256 384 256C371.732 256 360.545 252.188 350.867 246.15Z" class="fa-secondary"/><path d="M192 0C174.312 0 160 14.328 160 32V176H200C208.459 176 216.459 177.729 224 180.41V32C224 14.328 209.688 0 192 0ZM96 32C78.312 32 64 46.328 64 64V176.807C66.66 176.508 69.26 176 72 176H128V64C128 46.328 113.688 32 96 32ZM288 32C270.312 32 256 46.328 256 64V160C256 177.672 270.312 192 288 192S320 177.672 320 160V64C320 46.328 305.688 32 288 32ZM384 96C366.312 96 352 110.328 352 128V192C352 209.672 366.312 224 384 224S416 209.672 416 192V128C416 110.328 401.688 96 384 96Z" class="fa-primary"/></svg>

<svg xmlns="http://www.w3.org/2000/svg" viewBox="0 0 448 512"><!--! Font Awesome Pro 6.3.0 by @fontawesome - https://fontawesome.com License - https://fontawesome.com/license (Commercial License) Copyright 2023 Fonticons, Inc. --><defs><style>.fa-secondary{opacity:.4}</style></defs><path class="fa-primary" d="M192 0C174.3 0 160 14.33 160 32v144h40c8.459 0 16.46 1.729 24 4.41V32C224 14.33 209.7 0 192 0zM96 32C78.31 32 64 46.33 64 64v112.8C66.66 176.5 69.26 176 72 176H128V64C128 46.33 113.7 32 96 32zM288 32c-17.69 0-32 14.33-32 32v96c0 17.67 14.31 32 32 32s32-14.33 32-32V64C320 46.33 305.7 32 288 32zM384 96c-17.69 0-32 14.33-32 32v64c0 17.67 14.31 32 32 32s32-14.34 32-32.02V128C416 110.3 401.7 96 384 96z"/><path class="fa-secondary" d="M350.9 246.2c-12.43-7.648-21.94-19.31-26.88-33.25C313.7 219.9 301.3 223.9 288 223.9c-7.641 0-14.87-1.502-21.66-3.957C269.1 228.6 272 238.1 272 248c0 39.77-32.25 72-72 72H128c-8.836 0-16-7.164-16-16C112 295.2 119.2 288 128 288h72c22.09 0 40-17.91 40-40S222.1 208 200 208h-128C49.91 208 32 225.9 32 248v63.41c0 33.13 16 64.56 42.81 84.13L128 434.2V512h224v-85.09c38.3-24.09 64-66.42 64-114.9V247.1C406.6 252.6 395.7 256 384 256C371.7 256 360.5 252.2 350.9 246.2z"/></svg>
